X: 606
T: Zhu niangjia
L: 1/8
M: 2/4
K: F
c> d c B [I:setbarnb 1]| 
G4 | 
f e/ d/ c B | 
G4 | 
c3c | 
d2d2 | 
c2c B | 
c2B G | 
F G F D | 
C4 | 
F G B B | 
c B G F | 
E2B G | 
F G F E | 
C C F G | 
C4 |]

@@@ Tune index: 9480
